/*
 * The motifWizard wordmark, shown by mWinfo.
 *
 * A one-bit bitmap rather than a pixmap on purpose: it is drawn in the
 * label's own foreground and background, so it follows whatever colors the
 * style file gives the window instead of carrying its own. 300x38 is the
 * wordmark trimmed and scaled to a width the About window is comfortable at.
 *
 * This file is distributed under the terms of the MIT license.
 * See the included COPYING.MIT file for further information.
 */

#define mwizard_logo_width 300
#define mwizard_logo_height 38
static char mwizard_logo_bits[] = {
  0x00, 0x00, 0x00, 0x00, 0x00, 0x00, 0x00, 0x00, 0x00, 0x00, 0x00, 0x00, 
  0x7C, 0x00, 0x00, 0x00, 0x00, 0x00, 0x00, 0x00, 0x00, 0x00, 0x00, 0x00, 
  0x00, 0x00, 0x00, 0x00, 0x00, 0x00, 0xFE, 0x7F, 0x00, 0x00, 0xFC, 0x7F, 
  0x00, 0x00, 0x00, 0x00, 0x00, 0x00, 0x00, 0x00, 0x00, 0x00, 0x00, 0x80, 
  0x1F, 0x80, 0xFF, 0xFF, 0x0F, 0x00, 0x00, 0xF0, 0xFF, 0xFD, 0xFF, 0xF0, 
  0xFF, 0xFF, 0x7F, 0x80, 0xFF, 0x3F, 0x00, 0xF0, 0xFF, 0xFF, 0x07, 0xF0, 
  0xFF, 0xFF, 0x03, 0x00, 0x00, 0x00, 0x00, 0x00, 0x00, 0x00, 0x00, 0x00, 
  0x00, 0xC0, 0x3F, 0xE0, 0xFF, 0xFF, 0x1F, 0x00, 0x00, 0xF8, 0xFF, 0xFF, 
  0xFF, 0xF0, 0xFF, 0xFF, 0x7F, 0xC0, 0xFF, 0x7F, 0x00, 0xF8, 0xFF, 0xFF, 
  0x1F, 0xF0, 0xFF, 0xFF, 0x0F, 0x00, 0x00, 0x00, 0x00, 0x00, 0x00, 0x00, 
  0x00, 0x00, 0x00, 0xC0, 0x3F, 0xE0, 0xFF, 0xFF, 0x1F, 0xE0, 0x1F, 0xF8, 
  0xFF, 0xFF, 0xFF, 0xF1, 0xFF, 0xFF, 0xFF, 0xC0, 0xFF, 0x7F, 0x00, 0xF8, 
  0xFF, 0xFF, 0x3F, 0xF0, 0xFF, 0xFF, 0x3F, 0x00, 0x00, 0x00, 0x00, 0x00, 
  0x00, 0x00, 0x00, 0x00, 0x00, 0xC0, 0x3F, 0xF0, 0xFF, 0xFF, 0x1F, 0xF0, 
  0x1F, 0xF8, 0xFF, 0xFF, 0xFF, 0xF9, 0xFF, 0xFF, 0x7F, 0xC0, 0xFF, 0x7F, 
  0x00, 0xF8, 0xFF, 0xFF, 0x7F, 0xF0, 0xFF, 0xFF, 0x7F, 0x00, 0x00, 0x00, 
  0x00, 0x00, 0x00, 0x00, 0x00, 0x00, 0x0F, 0xC0, 0x3F, 0xF8, 0xC3, 0xFF, 
  0x07, 0xF8, 0x1F, 0xE0, 0x7F, 0xF8, 0x7F, 0xF8, 0xFF, 0xFF, 0x3F, 0xC0, 
  0xFF, 0xFF, 0x00, 0xE0, 0xFF, 0xFE, 0xFF, 0xC0, 0xFF, 0xFD, 0xFF, 0x00, 
  0x00, 0x00, 0x00, 0x00, 0x00, 0x00, 0x00, 0x80, 0x1F, 0xC0, 0x3F, 0xF8, 
  0x03, 0xFF, 0x03, 0xF8, 0x3F, 0xC0, 0x3F, 0xF0, 0x3F, 0xF8, 0x0F, 0xF8, 
  0x3F, 0x00, 0xF8, 0xFF, 0x00, 0xC0, 0xFF, 0xE0, 0xFF, 0x80, 0xFF, 0xE0, 
  0xFF, 0x01, 0x00, 0x00, 0x00, 0x00, 0x00, 0x00, 0x00, 0x80, 0x1F, 0x80, 
  0x1F, 0xF8, 0x03, 0xFF, 0x03, 0xF8, 0x3F, 0x80, 0x1F, 0xF0, 0x3F, 0xF8, 
  0x07, 0xFC, 0x1F, 0x00, 0xFC, 0xFF, 0x00, 0xC0, 0xFF, 0xC0, 0xFF, 0x81, 
  0xFF, 0xC0, 0xFF, 0x01, 0x00, 0x00, 0x00, 0x00, 0x00, 0x00, 0x00, 0x80, 
  0x1F, 0x00, 0x00, 0xF8, 0x03, 0xFF, 0x07, 0xFC, 0x3F, 0xC0, 0x1F, 0xF0, 
  0x3F, 0xF8, 0x03, 0xFC, 0x1F, 0x00, 0xFC, 0xFF, 0x01, 0xC0, 0xFF, 0xC0, 
  0xFF, 0x81, 0xFF, 0x80, 0xFF, 0x03, 0x00, 0x00, 0x00, 0x00, 0x00, 0x00, 
  0x00, 0x80, 0x1F, 0x00, 0x00, 0xF8, 0x03, 0xFE, 0x07, 0xFC, 0x3F, 0xC0, 
  0x1F, 0xF0, 0x3F, 0xF8, 0x03, 0xFE, 0x0F, 0x00, 0xFC, 0xFF, 0x01, 0xC0, 
  0xFF, 0x80, 0xFF, 0x81, 0xFF, 0x00, 0xFF, 0x03, 0x00, 0x00, 0x00, 0x00, 
  0x00, 0x00, 0x00, 0x80, 0x1F, 0x00, 0x00, 0xF8, 0x03, 0xFE, 0x07, 0xFC, 
  0x7F, 0xC0, 0x1F, 0xF0, 0x3F, 0xF8, 0x03, 0xFF, 0x07, 0x00, 0xFE, 0xFF, 
  0x01, 0xC0, 0xFF, 0x80, 0xFF, 0x81, 0xFF, 0x00, 0xFF, 0x07, 0x00, 0x00, 
  0x00, 0x08, 0x00, 0xE0, 0x03, 0x80, 0x3F, 0x00, 0x00, 0xF8, 0x03, 0xFE, 
  0x07, 0xFC, 0x7F, 0xC0, 0x0F, 0xF0, 0x3F, 0xF8, 0x01, 0xFF, 0x07, 0x00, 
  0x7E, 0xFF, 0x03, 0xC0, 0xFF, 0x80, 0xFF, 0x81, 0xFF, 0x00, 0xFE, 0x07, 
  0x3E, 0xFE, 0xC1, 0x7F, 0x00, 0xFC, 0x1F, 0xE0, 0xFF, 0x03, 0x1F, 0xFE, 
  0x1F, 0xFC, 0x0F, 0xFE, 0x7F, 0xE0, 0x0F, 0xF0, 0x3F, 0xF8, 0x81, 0xFF, 
  0x03, 0x00, 0x7E, 0xFE, 0x03, 0xC0, 0xFF, 0x80, 0xFF, 0x81, 0xFF, 0x00, 
  0xFE, 0x07, 0x7F, 0xFF, 0xE7, 0xFF, 0x00, 0xFF, 0x7F, 0xF0, 0xFF, 0x87, 
  0x1F, 0xFF, 0x3F, 0xFC, 0x0F, 0xFE, 0x7F, 0xE0, 0x0F, 0xF0, 0x3F, 0x00, 
  0xC0, 0xFF, 0x01, 0x00, 0x7F, 0xFE, 0x03, 0xC0, 0xFF, 0xC0, 0xFF, 0x81, 
  0xFF, 0x00, 0xFE, 0x07, 0xFF, 0xFF, 0xF7, 0xFF, 0x81, 0xFF, 0xFF, 0xF0, 
  0xFF, 0x87, 0x3F, 0xFF, 0x3F, 0xFC, 0x0F, 0xFE, 0xFF, 0xE0, 0x0F, 0xF0, 
  0x3F, 0x00, 0xC0, 0xFF, 0x01, 0x00, 0x7F, 0xFE, 0x07, 0xC0, 0xFF, 0xC0, 
  0xFF, 0x80, 0xFF, 0x00, 0xFE, 0x0F, 0xFF, 0xFF, 0xFF, 0xFF, 0x81, 0xFF, 
  0xFF, 0xF0, 0xFF, 0x87, 0x3F, 0xFE, 0x3F, 0xFC, 0x0F, 0xFE, 0xFF, 0xF0, 
  0x07, 0xF0, 0x3F, 0x00, 0xE0, 0xFF, 0x00, 0x00, 0x3F, 0xFE, 0x07, 0xC0, 
  0xFF, 0xE0, 0xFF, 0x80, 0xFF, 0x00, 0xFE, 0x0F, 0xFF, 0xF3, 0x7F, 0xFC, 
  0xC1, 0x1F, 0xFC, 0xC1, 0xFF, 0x83, 0x3F, 0xFC, 0x0F, 0xF8, 0x1F, 0xFF, 
  0xFF, 0xF0, 0x07, 0xF0, 0x3F, 0x00, 0xF0, 0xFF, 0x00, 0x80, 0x3F, 0xFC, 
  0x07, 0xC0, 0xFF, 0xF0, 0x7F, 0x80, 0xFF, 0x00, 0xFE, 0x0F, 0xFF, 0xE1, 
  0x3F, 0xFC, 0xE1, 0x0F, 0xF8, 0x83, 0x1F, 0x80, 0x3F, 0xF8, 0x03, 0xF8, 
  0x1F, 0xFF, 0xFF, 0xF0, 0x07, 0xF0, 0x3F, 0x00, 0xF0, 0x7F, 0x00, 0x80, 
  0x3F, 0xFC, 0x0F, 0xC0, 0xFF, 0xFF, 0x3F, 0x80, 0xFF, 0x00, 0xFE, 0x0F, 
  0xFF, 0xE0, 0x1F, 0xFC, 0xE3, 0x0F, 0xF8, 0x83, 0x1F, 0x80, 0x3F, 0xF8, 
  0x03, 0xF8, 0x1F, 0xBF, 0xFF, 0xF1, 0x03, 0xF0, 0x3F, 0x00, 0xF8, 0x3F, 
  0x00, 0x80, 0x3F, 0xFC, 0x0F, 0xC0, 0xFF, 0xFF, 0x1F, 0x80, 0xFF, 0x00, 
  0xFC, 0x0F, 0x7F, 0xE0, 0x1F, 0xF8, 0xE3, 0x0F, 0xF8, 0x83, 0x1F, 0x80, 
  0x3F, 0xF8, 0x03, 0xF0, 0x1F, 0x3F, 0xFF, 0xF9, 0x03, 0xF0, 0x3F, 0x00, 
  0xFC, 0x3F, 0x00, 0xC0, 0x1F, 0xFC, 0x0F, 0xC0, 0xFF, 0xFF, 0x07, 0x80, 
  0xFF, 0x00, 0xFE, 0x0F, 0x7F, 0xE0, 0x0F, 0xF8, 0xE3, 0x07, 0xF0, 0x83, 
  0x1F, 0x80, 0x3F, 0xF8, 0x03, 0xF0, 0xBF, 0x3F, 0xFF, 0xF9, 0x03, 0xF0, 
  0x3F, 0x00, 0xFC, 0x1F, 0x00, 0xC0, 0x1F, 0xF8, 0x1F, 0xC0, 0xFF, 0xFF, 
  0x07, 0x80, 0xFF, 0x00, 0xFE, 0x0F, 0x7F, 0xE0, 0x0F, 0xF8, 0xF3, 0x07, 
  0xF0, 0x87, 0x1F, 0x80, 0x3F, 0xF8, 0x03, 0xF0, 0xBF, 0x3F, 0xFF, 0xF9, 
  0x03, 0xF0, 0x3F, 0x00, 0xFE, 0x0F, 0x00, 0xC0, 0x1F, 0xF8, 0x1F, 0xC0, 
  0xFF, 0xFF, 0x0F, 0x80, 0xFF, 0x00, 0xFE, 0x0F, 0x7F, 0xE0, 0x0F, 0xF8, 
  0xF3, 0x07, 0xF0, 0x87, 0x1F, 0x80, 0x3F, 0xF8, 0x03, 0xE0, 0xBF, 0x1F, 
  0xFF, 0xFB, 0x01, 0xF0, 0x3F, 0x00, 0xFE, 0x0F, 0x00, 0xE0, 0x1F, 0xF8, 
  0x1F, 0xC0, 0xFF, 0xF8, 0x1F, 0x80, 0xFF, 0x00, 0xFE, 0x0F, 0x7F, 0xE0, 
  0x0F, 0xF8, 0xF3, 0x07, 0xF0, 0x87, 0x1F, 0x80, 0x3F, 0xF8, 0x03, 0xE0, 
  0xFF, 0x1F, 0xFE, 0xFF, 0x01, 0xF0, 0x3F, 0x00, 0xFF, 0x07, 0x00, 0xE0, 
  0xFF, 0xFF, 0x3F, 0xC0, 0xFF, 0xF8, 0x3F, 0x80, 0xFF, 0x00, 0xFE, 0x07, 
  0x7F, 0xE0, 0x0F, 0xF8, 0xF3, 0x07, 0xF0, 0x87, 0x1F, 0x80, 0x3F, 0xF8, 
  0x03, 0xE0, 0xFF, 0x1F, 0xFE, 0xFF, 0x01, 0xF0, 0x3F, 0x80, 0xFF, 0x07, 
  0xFC, 0xE0, 0xFF, 0xFF, 0x3F, 0xC0, 0xFF, 0xF0, 0x7F, 0x80, 0xFF, 0x00, 
  0xFE, 0x07, 0x7F, 0xE0, 0x0F, 0xF8, 0xF3, 0x07, 0xF0, 0x87, 0x1F, 0x80, 
  0x3F, 0xF8, 0x03, 0xE0, 0xFF, 0x0F, 0xFE, 0xFF, 0x01, 0xF0, 0x3F, 0x80, 
  0xFF, 0x03, 0xFC, 0xF0, 0xFF, 0xFF, 0x3F, 0xC0, 0xFF, 0xF0, 0x7F, 0x80, 
  0xFF, 0x00, 0xFE, 0x07, 0x7F, 0xE0, 0x0F, 0xF8, 0xF3, 0x07, 0xF0, 0x87, 
  0x1F, 0x80, 0x3F, 0xF8, 0x03, 0xC0, 0xFF, 0x0F, 0xFC, 0xFF, 0x00, 0xF0, 
  0x3F, 0xC0, 0xFF, 0x01, 0xFE, 0xF0, 0xFF, 0xFF, 0x7F, 0xC0, 0xFF, 0xE0, 
  0xFF, 0x80, 0xFF, 0x00, 0xFE, 0x07, 0x7F, 0xE0, 0x0F, 0xF8, 0xF3, 0x07, 
  0xF0, 0x87, 0x1F, 0x80, 0x3F, 0xF8, 0x03, 0xC0, 0xFF, 0x0F, 0xFC, 0xFF, 
  0x00, 0xF0, 0x3F, 0xE0, 0xFF, 0x01, 0xFE, 0xF0, 0xFF, 0xFF, 0x7F, 0xC0, 
  0xFF, 0xE0, 0xFF, 0x80, 0xFF, 0x00, 0xFF, 0x03, 0x7F, 0xE0, 0x0F, 0xF8, 
  0xF3, 0x07, 0xF8, 0x83, 0x1F, 0x80, 0x3F, 0xF8, 0x03, 0xC0, 0xFF, 0x0F, 
  0xFC, 0xFF, 0x00, 0xF0, 0x3F, 0xE0, 0xFF, 0x00, 0xFF, 0xF8, 0x07, 0xE0, 
  0x7F, 0xC0, 0xFF, 0xE0, 0xFF, 0x80, 0xFF, 0x00, 0xFF, 0x03, 0x7F, 0xE0, 
  0x0F, 0xF8, 0xE3, 0x0F, 0xF8, 0x83, 0x1F, 0x80, 0x3F, 0xF8, 0x03, 0x80, 
  0xFF, 0x07, 0xFC, 0x7F, 0x00, 0xF0, 0x3F, 0xF0, 0x7F, 0x00, 0xFF, 0xF8, 
  0x03, 0xE0, 0xFF, 0xC0, 0xFF, 0xE0, 0xFF, 0x81, 0xFF, 0x80, 0xFF, 0x01, 
  0x7F, 0xE0, 0x0F, 0xF8, 0xE3, 0x0F, 0xF8, 0x83, 0x3F, 0x80, 0x3F, 0xF8, 
  0x03, 0x80, 0xFF, 0x07, 0xF8, 0x7F, 0x00, 0xF0, 0x3F, 0xF8, 0x7F, 0x80, 
  0xFF, 0xFC, 0x03, 0xE0, 0xFF, 0xC0, 0xFF, 0xC0, 0xFF, 0x81, 0xFF, 0xC0, 
  0xFF, 0x01, 0x7F, 0xE0, 0x0F, 0xF8, 0xE3, 0x1F, 0xFC, 0x83, 0x3F, 0x86, 
  0x3F, 0xF8, 0x03, 0x80, 0xFF, 0x07, 0xF8, 0x7F, 0x00, 0xF0, 0x3F, 0xF8, 
  0x3F, 0xE0, 0x7F, 0xFC, 0x03, 0xE0, 0xFF, 0xC1, 0xFF, 0xC0, 0xFF, 0x83, 
  0xFF, 0xF0, 0xFF, 0x00, 0x7F, 0xE0, 0x0F, 0xF8, 0xC3, 0x3F, 0xFE, 0x81, 
  0x3F, 0x8F, 0x3F, 0xF8, 0x03, 0x80, 0xFF, 0x03, 0xF8, 0x3F, 0x00, 0xFC, 
  0xFF, 0xFC, 0xFF, 0xFF, 0xFF, 0xFF, 0x0F, 0xF0, 0xFF, 0xF7, 0xFF, 0x83, 
  0xFF, 0xEF, 0xFF, 0xFF, 0x7F, 0x00, 0x7F, 0xE0, 0x0F, 0xF8, 0x83, 0xFF, 
  0xFF, 0x80, 0xFF, 0x8F, 0x3F, 0xF8, 0x03, 0x00, 0xFF, 0x03, 0xF0, 0x3F, 
  0x00, 0xFE, 0xFF, 0xFD, 0xFF, 0xFF, 0xFF, 0xFF, 0x1F, 0xF8, 0xFF, 0xFF, 
  0xFF, 0x87, 0xFF, 0xFF, 0xFF, 0xFF, 0x3F, 0x00, 0x7F, 0xE0, 0x0F, 0xFC, 
  0x83, 0xFF, 0xFF, 0x80, 0xFF, 0x8F, 0x3F, 0xF8, 0x03, 0x00, 0xFF, 0x01, 
  0xF0, 0x1F, 0x00, 0xFE, 0xFF, 0xFF, 0xFF, 0xFF, 0xFF, 0xFF, 0x1F, 0xF8, 
  0xFF, 0xFF, 0xFF, 0x07, 0xFF, 0xFF, 0xFF, 0xFF, 0x1F, 0x00, 0x7F, 0xE0, 
  0x0F, 0xF8, 0x01, 0xFF, 0x3F, 0x00, 0xFF, 0x87, 0x1F, 0xF8, 0x03, 0x00, 
  0xFF, 0x01, 0xF0, 0x1F, 0x00, 0xFE, 0xFF, 0xFC, 0xFF, 0xFF, 0xFF, 0xFF, 
  0x1F, 0xF8, 0xFF, 0xFF, 0xFF, 0x07, 0xFE, 0xFF, 0xFF, 0xFF, 0x07, 0x00, 
  0x3E, 0xC0, 0x07, 0xF8, 0x01, 0xFC, 0x1F, 0x00, 0xFE, 0x81, 0x1F, 0xF0, 
  0x01, 0x00, 0xFE, 0x00, 0xF0, 0x0F, 0x00, 0xFC, 0xFF, 0xFC, 0xFF, 0xFF, 
  0x3F, 0xFF, 0x0F, 0xF0, 0xFF, 0xF7, 0xFF, 0x03, 0xFC, 0xE7, 0xFF, 0xFF, 
  0x01, 0x00, 0x00, 0x00, 0x00, 0x00, 0x00, 0xE0, 0x03, 0x00, 0x3C, 0x00, 
  0x00, 0x00, 0x00, 0x00, 0x1C, 0x00, 0xE0, 0x01, 0x00, 0x00, 0x00, 0x00, 
  0x00, 0x00, 0x3C, 0x00, 0x00, 0x00, 0x00, 0x00, 0x00, 0x00, 0xC0, 0x00, 
  0xC0, 0x1F, 0x00, 0x00, };
